src/components/auth/account.svg

<svg viewBox="0 0 14 14" xmlns="http://www.w3.org/2000/svg"><g fill-rule="evenodd" transform=""><path d="m6.9125 7.4375c-2.0125 0-3.675-1.6625-3.675-3.675 0-2.1 1.6625-3.7625 3.675-3.7625s3.675 1.6625 3.675 3.675c0 2.1-1.6625 3.7625-3.675 3.7625zm0-6.5625c-1.575 0-2.8875 1.225-2.8875 2.8875 0 1.575 1.3125 2.8875 2.8875 2.8875s2.8875-1.3125 2.8875-2.8875c0-1.6625-1.3125-2.8875-2.8875-2.8875z"/><path d="m.4375 13.9125c-.2625 0-.4375-.175-.4375-.4375 0-3.85 3.15-6.9125 7-6.9125 1.75 0 3.4125.6125 4.725 1.8375.175.175.175.4375 0 .6125s-.4375.175-.6125 0c-1.1375-1.05-2.625-1.575-4.1125-1.575-3.325 0-6.125 2.7125-6.125 6.125 0 .175-.175.35-.4375.35z"/><path d="m13.5625 11.025h-4.55c-.2625 0-.4375-.175-.4375-.4375s.175-.4375.4375-.4375h4.55c.2625 0 .4375.175.4375.4375s-.2625.4375-.4375.4375zm0 2.975h-4.55c-.2625 0-.4375-.175-.4375-.4375s.175-.4375.4375-.4375h4.55c.2625 0 .4375.175.4375.4375s-.2625.4375-.4375.4375z"/></g></svg>

<?xml version="1.0" encoding="UTF-8"?>
<svg viewBox="0 0 14 14" version="1.1" xmlns="http://www.w3.org/2000/svg" xmlns:xlink="http://www.w3.org/1999/xlink">
    <!-- Generator: Sketch 46.1 (44463) - http://www.bohemiancoding.com/sketch -->
    <title>Group</title>
    <desc>Created with Sketch.</desc>
    <defs></defs>
    <g id="九路泊车视觉设计" stroke="none" stroke-width="1" fill-rule="evenodd">
        <g id="0-1-1登录/注册－扫描二维码进入后" transform="translate(-248.000000, -73.000000)">
            <g id="账户-(2)" transform="translate(248.000000, 73.000000)">
                <g id="Group">
                    <path d="M6.9125,7.4375 C4.9,7.4375 3.2375,5.775 3.2375,3.7625 C3.2375,1.6625 4.9,0 6.9125,0 C8.925,0 10.5875,1.6625 10.5875,3.675 C10.5875,5.775 8.925,7.4375 6.9125,7.4375 L6.9125,7.4375 Z M6.9125,0.875 C5.3375,0.875 4.025,2.1 4.025,3.7625 C4.025,5.3375 5.3375,6.65 6.9125,6.65 C8.4875,6.65 9.8,5.3375 9.8,3.7625 C9.8,2.1 8.4875,0.875 6.9125,0.875 L6.9125,0.875 Z" id="Shape"></path>
                    <path d="M0.4375,13.9125 C0.175,13.9125 0,13.7375 0,13.475 C0,9.625 3.15,6.5625 7,6.5625 C8.75,6.5625 10.4125,7.175 11.725,8.4 C11.9,8.575 11.9,8.8375 11.725,9.0125 C11.55,9.1875 11.2875,9.1875 11.1125,9.0125 C9.975,7.9625 8.4875,7.4375 7,7.4375 C3.675,7.4375 0.875,10.15 0.875,13.5625 C0.875,13.7375 0.7,13.9125 0.4375,13.9125 L0.4375,13.9125 Z" id="Shape"></path>
                    <path d="M13.5625,11.025 L9.0125,11.025 C8.75,11.025 8.575,10.85 8.575,10.5875 C8.575,10.325 8.75,10.15 9.0125,10.15 L13.5625,10.15 C13.825,10.15 14,10.325 14,10.5875 C14,10.85 13.7375,11.025 13.5625,11.025 L13.5625,11.025 Z M13.5625,14 L9.0125,14 C8.75,14 8.575,13.825 8.575,13.5625 C8.575,13.3 8.75,13.125 9.0125,13.125 L13.5625,13.125 C13.825,13.125 14,13.3 14,13.5625 C14,13.825 13.7375,14 13.5625,14 L13.5625,14 Z" id="Shape"></path>
                </g>
            </g>
        </g>
    </g>
</svg>
